modules/feathericon/icons/keyboard.svg

<svg width="24" height="24" viewBox="0 0 24 24" xmlns="http://www.w3.org/2000/svg"><path d="M2 8a2 2 0 0 1 2-2h16a2 2 0 0 1 2 2v8a2 2 0 0 1-2 2H4a2 2 0 0 1-2-2V8zm15 6v2h3v-2h-3zm-3 0v2h2v-2h-2zm-7 0v2h6v-2H7zm-3 0v2h2v-2H4zm14-3v2h2v-2h-2zm-3 0v2h2v-2h-2zm-3 0v2h2v-2h-2zm-3 0v2h2v-2H9zm-5 0v2h4v-2H4zm12-3v2h4V8h-4zm-3 0v2h2V8h-2zm-3 0v2h2V8h-2zM7 8v2h2V8H7zM4 8v2h2V8H4z" fill="#000" fill-rule="evenodd"/></svg>

<?xml version="1.0" encoding="UTF-8"?>
<svg width="24px" height="24px" viewBox="0 0 24 24" version="1.1" xmlns="http://www.w3.org/2000/svg" xmlns:xlink="http://www.w3.org/1999/xlink">
    <!-- Generator: sketchtool 52.2 (67145) - http://www.bohemiancoding.com/sketch -->
    <title>keyboard</title>
    <desc>Created with sketchtool.</desc>
    <g id="devices" stroke="none" stroke-width="1" fill="none" fill-rule="evenodd">
        <g id="keyboard" fill="#000000">
            <path d="M2,8 C2,6.8954305 2.8954305,6 4,6 L20,6 C21.1045695,6 22,6.8954305 22,8 L22,16 C22,17.1045695 21.1045695,18 20,18 L4,18 C2.8954305,18 2,17.1045695 2,16 L2,8 Z M17,14 L17,16 L20,16 L20,14 L17,14 Z M14,14 L14,16 L16,16 L16,14 L14,14 Z M7,14 L7,16 L13,16 L13,14 L7,14 Z M4,14 L4,16 L6,16 L6,14 L4,14 Z M18,11 L18,13 L20,13 L20,11 L18,11 Z M15,11 L15,13 L17,13 L17,11 L15,11 Z M12,11 L12,13 L14,13 L14,11 L12,11 Z M9,11 L9,13 L11,13 L11,11 L9,11 Z M4,11 L4,13 L8,13 L8,11 L4,11 Z M16,8 L16,10 L20,10 L20,8 L16,8 Z M13,8 L13,10 L15,10 L15,8 L13,8 Z M10,8 L10,10 L12,10 L12,8 L10,8 Z M7,8 L7,10 L9,10 L9,8 L7,8 Z M4,8 L4,10 L6,10 L6,8 L4,8 Z" id="Shape"></path>
        </g>
    </g>
</svg>
